!!!OTL: Fuyuan diao
!!!ARE: Asia, China,ÿYunnan
!! II, 57
!!!SCT: C1488
!!!YEM: Copyright 1995, estate of Helmut Schaffrath.
**kern
*ICvox
*Ivox
!! Mixed meters:  3/4; 2/4
*M3/4
*k[b-e-]
*B-:
{8ff
16ff
16ff
8ff
8bb-
16bb-
16ccc
8ff
=1
*M2/4
8bb-
16ccc
16ddd
16.ccc
32bb-
16aa-
16bb-}
=2
{16ccc
16bb-
16gg
16ff
8ff
16ff
16bb-
=3
*M3/4
16ff
16bb-
16gg
16ff
4ff
8cc
8r}
=4
{8ff
16ff
16ff
8ff
16ff
16bb-
16bb-
16ccc
8ff
=5
*M2/4
8bb-
16ccc
16ddd
16.ccc
32bb-
16aa-
16bb-}
=6
{16ccc
16bb-
16gg
16ff
8ff
16ff
16bb-
=7
16ff
16bb-
16gg
16ff
4ff
8cc
8r}
==
!!!AGN: Shange
!!!AMT: irregular
!!!AIN: vox
!!!EED: Helmut Schaffrath
!!!EEV: 1.0
*-
